sitelenpona/static/sewi-2.svg

<svg xmlns="http://www.w3.org/2000/svg" xmlns:xlink="http://www.w3.org/1999/xlink" version="1.1" viewBox="49 155 711 538">
   <path fill="currentColor" d="M728 569q0 100 -37 100q-16 0 -30.5 -15.5t-14.5 -33.5q0 -14 10 -25q7 -8 7 -44v-13q0 -113 -19 -114h-8q-7 -1 -18 -2.5t-23.5 -2.5t-26 -1.5t-22.5 -0.5q-7 0 -54 6t-139 6q-13 0 -49 -1.5t-77 -3.5t-46 -2l-23 -1l-6 42q-4 24 -4 43q0 14 3 36.5t3 32.5q0 16 -5 32 q-7 24 -12.5 32t-16.5 8q-10 0 -23 -3.5t-14 -7.5l-1 -2v-4q0 -15 5 -41.5t8 -26.5t2 -7q-1 -6 -1.5 -11t-1 -18t-0.5 -28v-5v-12.5t0.5 -16t0.5 -17v-14.5v-38q0 -22 7 -39q6 -13 11 -15q3 -1 10 -1q13 0 83 10.5t100 10.5q8 0 22 -1.5t23 -1.5q4 0 7.5 0.5t10 1t12.5 0.5 q23 2 23 -3q0 -4 7 1q5 5 42 6t83.5 2t67.5 6q16 4 26 4q6 0 12.5 -3t8.5 -4t6 4q5 5 6.5 2.5t8 -8.5t15.5 -6t21.5 6.5t12.5 16.5q0 1 -0.5 3.5t-0.5 4.5q0 5 4 13t4 12q0 1 -2.5 9.5t-2.5 29.5q0 42 -2 45q-1 2 -1 5q0 1 4 20.5t4 42.5zM459 276q0 23 -24 33t-54 10 q-13 0 -24 -6t-19 -7q-14 -2 -14 -23q0 -2 1 -11t4.5 -25.5t9 -31t16 -25t23.5 -10.5q23 0 52 31.5t29 64.5z"/>
</svg>

<svg xmlns="http://www.w3.org/2000/svg" xmlns:xlink="http://www.w3.org/1999/xlink" version="1.1" viewBox="49 155 711 538">
  <g>
    <path fill="currentColor" d="M 728.0,569.0 Q 728.0,669.0 691.0,669.0 Q 675.0,669.0 660.5,653.5 Q 646.0,638.0 646.0,620.0 Q 646.0,606.0 656.0,595.0 Q 663.0,587.0 663.0,551.0 L 663.0,538.0 Q 663.0,425.0 644.0,424.0 L 636.0,424.0 Q 629.0,423.0 618.0,421.5 Q 607.0,420.0 594.5,419.0 Q 582.0,418.0 568.5,417.5 Q 555.0,417.0 546.0,417.0 Q 539.0,417.0 492.0,423.0 Q 445.0,429.0 353.0,429.0 Q 340.0,429.0 304.0,427.5 Q 268.0,426.0 227.0,424.0 Q 186.0,422.0 181.0,422.0 L 158.0,421.0 L 152.0,463.0 Q 148.0,487.0 148.0,506.0 Q 148.0,520.0 151.0,542.5 Q 154.0,565.0 154.0,575.0 Q 154.0,591.0 149.0,607.0 Q 142.0,631.0 136.5,639.0 Q 131.0,647.0 120.0,647.0 Q 110.0,647.0 97.0,643.5 Q 84.0,640.0 83.0,636.0 L 82.0,634.0 L 82.0,630.0 Q 82.0,615.0 87.0,588.5 Q 92.0,562.0 95.0,562.0 Q 98.0,562.0 97.0,555.0 Q 96.0,549.0 95.5,544.0 Q 95.0,539.0 94.5,526.0 Q 94.0,513.0 94.0,498.0 L 94.0,493.0 L 94.0,480.5 Q 94.0,480.5 94.5,464.5 Q 95.0,448.5 95.0,447.5 L 95.0,433.0 L 95.0,395.0 Q 95.0,373.0 102.0,356.0 Q 108.0,343.0 113.0,341.0 Q 116.0,340.0 123.0,340.0 Q 136.0,340.0 206.0,350.5 Q 276.0,361.0 306.0,361.0 Q 314.0,361.0 328.0,359.5 Q 342.0,358.0 351.0,358.0 Q 355.0,358.0 358.5,358.5 Q 362.0,359.0 368.5,359.5 Q 375.0,360.0 381.0,360.0 Q 404.0,362.0 404.0,357.0 Q 404.0,353.0 411.0,358.0 Q 416.0,363.0 453.0,364.0 Q 490.0,365.0 536.5,366.0 Q 583.0,367.0 604.0,372.0 Q 620.0,376.0 630.0,376.0 Q 636.0,376.0 642.5,373.0 Q 649.0,370.0 651.0,369.0 Q 653.0,368.0 657.0,373.0 Q 662.0,378.0 663.5,375.5 Q 665.0,373.0 671.5,367.0 Q 678.0,361.0 687.0,361.0 Q 696.0,361.0 708.5,367.5 Q 721.0,374.0 721.0,384.0 Q 721.0,385.0 720.5,387.5 Q 720.0,390.0 720.0,392.0 Q 720.0,397.0 724.0,405.0 Q 728.0,413.0 728.0,417.0 Q 728.0,418.0 725.5,426.5 Q 723.0,435.0 723.0,456.0 Q 723.0,498.0 721.0,501.0 Q 720.0,503.0 720.0,506.0 Q 720.0,507.0 724.0,526.5 Q 728.0,546.0 728.0,569.0 M 459.0,276.0 Q 459.0,299.0 435.0,309.0 Q 411.0,319.0 381.0,319.0 Q 368.0,319.0 357.0,313.0 Q 346.0,307.0 338.0,306.0 Q 324.0,304.0 324.0,283.0 Q 324.0,281.0 325.0,272.0 Q 326.0,263.0 329.5,246.5 Q 333.0,230.0 338.5,215.5 Q 344.0,201.0 354.5,190.5 Q 365.0,180.0 378.0,180.0 Q 401.0,180.0 430.0,211.5 Q 459.0,243.0 459.0,276.0"/>
  </g>
</svg>
